dist/img/twitter_logo.svg

<svg width="30" height="26" viewBox="0 0 30 26" fill="none" xmlns="http://www.w3.org/2000/svg">
<path d="M26.9162 6.88969C26.9353 7.15617 26.9353 7.42271 26.9353 7.6892C26.9353 15.8173 20.7488 25.1828 9.44162 25.1828C5.95811 25.1828 2.72209 24.1739 0 22.4227C0.494941 22.4798 0.970781 22.4988 1.48477 22.4988C4.35908 22.4988 7.00506 21.528 9.11801 19.872C6.41496 19.8148 4.14973 18.0445 3.36926 15.608C3.75 15.665 4.13068 15.7031 4.53047 15.7031C5.08248 15.7031 5.63455 15.627 6.14848 15.4938C3.33123 14.9227 1.21822 12.4481 1.21822 9.45949V9.38338C2.03672 9.84023 2.98857 10.1258 3.99738 10.1638C2.34129 9.05971 1.25631 7.17522 1.25631 5.04322C1.25631 3.90111 1.56082 2.85416 2.09385 1.94045C5.12051 5.67141 9.67002 8.10791 14.7715 8.37445C14.6763 7.9176 14.6192 7.44176 14.6192 6.96586C14.6192 3.5775 17.3603 0.817383 20.7677 0.817383C22.538 0.817383 24.1369 1.55977 25.2601 2.759C26.6496 2.49252 27.9821 1.97854 29.1623 1.27424C28.7054 2.70193 27.7346 3.90117 26.4593 4.66254C27.6966 4.52936 28.8959 4.18664 29.9999 3.7108C29.1625 4.92902 28.1154 6.014 26.9162 6.88969Z" fill="black"/>
</svg>

<svg width="30" height="26" fill="none" xmlns="http://www.w3.org/2000/svg"><path d="M26.916 6.89c.02.266.02.533.02.8 0 8.127-6.187 17.493-17.494 17.493-3.484 0-6.72-1.01-9.442-2.76.495.057.97.076 1.485.076 2.874 0 5.52-.971 7.633-2.627a6.16 6.16 0 01-5.749-4.264c.381.057.762.095 1.161.095a6.46 6.46 0 001.618-.21 6.15 6.15 0 01-4.93-6.034v-.076c.819.457 1.77.743 2.78.78a6.144 6.144 0 01-2.742-5.12c0-1.142.305-2.189.838-3.103a17.477 17.477 0 0012.678 6.434 6.938 6.938 0 01-.153-1.408A6.146 6.146 0 0120.768.817c1.77 0 3.369.743 4.492 1.942a12.07 12.07 0 003.902-1.485 6.132 6.132 0 01-2.703 3.389A12.326 12.326 0 0030 3.71a13.217 13.217 0 01-3.083 3.179z" fill="#000"/></svg>
